P3
# 8-bit ppm - RGB
16 16
255
175 129 140 181 135 146 176 130 141 179 133 144 169 123 134 176 130 141 168 122 133 167
121 132 173 127 140 174 128 141 163 117 130 156 110 123 184 138 151 163 117 130 154 108
121 170 123 139
181 135 146 175 129 140 174 128 139 186 140 151 178 132 143 169 123 134 167 121 132 181
135 146 165 119 132 180 134 147 182 136 149 169 123 136 180 134 147 163 117 130 163 117
130 180 133 149
173 127 138 169 123 134 171 125 136 171 125 136 178 132 143 178 132 143 180 134 145 177
131 142 165 119 132 169 123 136 168 122 135 160 114 127 172 126 139 169 123 136 164 117
133 158 111 127
177 131 142 178 132 143 181 135 146 168 122 133 175 129 140 171 125 136 173 127 138 162
116 127 164 118 131 170 124 137 177 131 144 171 125 138 165 119 132 162 116 129 165 118
134 163 116 132
178 132 143 172 126 137 181 135 146 182 136 147 184 138 149 164 118 129 170 124 137 178
132 145 173 127 140 169 123 136 173 127 140 177 131 144 168 121 137 166 119 135 169 122
138 169 122 138
178 132 143 170 124 135 171 125 136 176 130 141 186 140 151 182 136 147 179 133 146 176
130 143 176 130 143 164 118 131 158 112 125 170 124 137 171 124 140 175 128 144 168 121
137 163 116 132
187 141 152 185 139 150 175 129 140 171 125 136 173 127 140 182 136 149 172 126 139 158
112 125 165 119 132 176 130 143 178 131 147 180 133 149 166 119 135 169 122 138 167 120
136 174 127 143
173 127 138 177 131 142 177 131 142 185 139 150 167 121 134 165 119 132 169 123 136 190
144 157 165 119 132 180 134 147 174 127 143 173 126 142 165 118 134 174 127 143 162 115
131 158 111 127
176 130 143 182 136 149 180 134 147 165 119 132 186 140 153 167 121 134 173 127 140 164
118 131 165 118 134 164 117 133 179 132 148 180 133 149 170 123 139 172 125 141 173 126
142 188 141 157
192 146 159 184 138 151 165 119 132 171 125 138 180 134 147 180 134 147 180 134 147 178
132 145 169 122 138 190 143 159 171 124 140 167 120 136 184 137 153 155 108 124 166 119
135 169 122 140
171 125 138 172 126 139 172 126 139 182 136 149 170 124 137 159 113 126 171 124 140 179
132 148 178 131 147 146  99 115 183 136 152 165 118 134 166 119 137 173 126 144 181 134
152 167 120 138
186 140 153 172 126 139 182 136 149 181 135 148 190 144 157 169 123 136 183 136 152 168
121 137 176 129 145 178 131 147 175 128 144 165 118 134 180 133 151 170 123 141 181 134
152 167 120 138
186 140 153 173 127 140 177 131 144 168 122 135 179 132 148 166 119 135 182 135 151 161
114 130 168 121 137 177 130 146 166 119 137 162 115 133 167 120 138 163 116 134 165 118
136 158 111 129
177 131 144 186 140 153 185 139 152 186 140 153 176 129 145 175 128 144 181 134 150 175
128 144 175 128 144 160 113 129 182 135 153 177 130 148 166 119 137 185 138 156 175 128
146 178 131 149
173 127 140 175 129 142 166 119 135 175 128 144 182 135 151 177 130 146 170 123 139 161
114 130 154 107 123 187 140 156 159 112 130 157 110 128 184 137 155 155 108 126 155 108
126 168 121 139
181 133 147 181 135 148 181 134 150 170 123 139 183 136 152 157 110 126 173 126 142 183
136 152 172 125 141 170 123 139 181 134 152 164 117 135 188 141 159 169 122 140 162 115
133 175 128 146
