P3
# 8-bit ppm - RGB
8 8
255
173 127 140 174 128 141 163 117 130 156 110 123 184 138 151 163 117 130 154 108 121 170
123 139
165 119 132 180 134 147 182 136 149 169 123 136 180 134 147 163 117 130 163 117 130 180
133 149
165 119 132 169 123 136 168 122 135 160 114 127 172 126 139 169 123 136 164 117 133 158
111 127
164 118 131 170 124 137 177 131 144 171 125 138 165 119 132 162 116 129 165 118 134 163
116 132
173 127 140 169 123 136 173 127 140 177 131 144 168 121 137 166 119 135 169 122 138 169
122 138
176 130 143 164 118 131 158 112 125 170 124 137 171 124 140 175 128 144 168 121 137 163
116 132
165 119 132 176 130 143 178 131 147 180 133 149 166 119 135 169 122 138 167 120 136 174
127 143
165 119 132 180 134 147 174 127 143 173 126 142 165 118 134 174 127 143 162 115 131 158
111 127
