P3
# 8-bit ppm - RGB
8 8
255
176 130 143 182 136 149 180 134 147 165 119 132 186 140 153 167 121 134 173 127 140 164
118 131
192 146 159 184 138 151 165 119 132 171 125 138 180 134 147 180 134 147 180 134 147 178
132 145
171 125 138 172 126 139 172 126 139 182 136 149 170 124 137 159 113 126 171 124 140 179
132 148
186 140 153 172 126 139 182 136 149 181 135 148 190 144 157 169 123 136 183 136 152 168
121 137
186 140 153 173 127 140 177 131 144 168 122 135 179 132 148 166 119 135 182 135 151 161
114 130
177 131 144 186 140 153 185 139 152 186 140 153 176 129 145 175 128 144 181 134 150 175
128 144
173 127 140 175 129 142 166 119 135 175 128 144 182 135 151 177 130 146 170 123 139 161
114 130
181 133 147 181 135 148 181 134 150 170 123 139 183 136 152 157 110 126 173 126 142 183
136 152
