P3
# 8-bit ppm - RGB
8 8
255
165 118 134 164 117 133 179 132 148 180 133 149 170 123 139 172 125 141 173 126 142 188
141 157
169 122 138 190 143 159 171 124 140 167 120 136 184 137 153 155 108 124 166 119 135 169
122 140
178 131 147 146  99 115 183 136 152 165 118 134 166 119 137 173 126 144 181 134 152 167
120 138
176 129 145 178 131 147 175 128 144 165 118 134 180 133 151 170 123 141 181 134 152 167
120 138
168 121 137 177 130 146 166 119 137 162 115 133 167 120 138 163 116 134 165 118 136 158
111 129
175 128 144 160 113 129 182 135 153 177 130 148 166 119 137 185 138 156 175 128 146 178
131 149
154 107 123 187 140 156 159 112 130 157 110 128 184 137 155 155 108 126 155 108 126 168
121 139
172 125 141 170 123 139 181 134 152 164 117 135 188 141 159 169 122 140 162 115 133 175
128 146
