P3
# 8-bit ppm - RGB
9 9
255
175 129 140 181 135 146 176 130 141 179 133 144 169 123 134 176 130 141 168 122 133 167
121 132 173 127 140
181 135 146 175 129 140 174 128 139 186 140 151 178 132 143 169 123 134 167 121 132 181
135 146 165 119 132
173 127 138 169 123 134 171 125 136 171 125 136 178 132 143 178 132 143 180 134 145 177
131 142 165 119 132
177 131 142 178 132 143 181 135 146 168 122 133 175 129 140 171 125 136 173 127 138 162
116 127 164 118 131
178 132 143 172 126 137 181 135 146 182 136 147 184 138 149 164 118 129 170 124 137 178
132 145 173 127 140
178 132 143 170 124 135 171 125 136 176 130 141 186 140 151 182 136 147 179 133 146 176
130 143 176 130 143
187 141 152 185 139 150 175 129 140 171 125 136 173 127 140 182 136 149 172 126 139 158
112 125 165 119 132
173 127 138 177 131 142 177 131 142 185 139 150 167 121 134 165 119 132 169 123 136 190
144 157 165 119 132
176 130 143 182 136 149 180 134 147 165 119 132 186 140 153 167 121 134 173 127 140 164
118 131 165 118 134
