P3
# 8-bit ppm - RGB
8 8
255
101  80  99 100  79  98 101  80  99 103  82 101 102  81 100 100  79  98 100  79  98 102
 81 100
 99  78  97  96  75  94  95  74  93  97  76  95  96  75  94  95  74  93  95  74  93  97
 76  95
100  77  97  98  75  95  96  75  94  99  78  97 100  79  98  98  77  96  95  74  93  94
 73  92
100  77  97  98  75  95  99  78  97 104  83 102 107  86 105 103  82 101  97  76  95  94
 73  92
 99  76  96  96  73  93  96  73  93 101  78  98 103  82 101 101  80  99  97  76  95  95
 74  93
103  80 100  98  75  95  94  71  91  95  72  92  96  75  94  96  75  94  97  76  95  99
 78  97
106  83 103 102  79  99  99  76  96  98  75  95  97  74  94  97  74  94  97  76  95 100
 79  98
103  80 100 103  80 100 103  80 100 104  81 101 102  79  99  98  75  95  95  74  93  96
 75  94
